humanity-icon-theme/Humanity/mimes/24/text-x-readme.svg

<?xml version="1.0" encoding="UTF-8" standalone="no"?>
<!-- Created with Inkscape (http://www.inkscape.org/) -->

<svg
   xmlns:svg="http://www.w3.org/2000/svg"
   xmlns="http://www.w3.org/2000/svg"
   xmlns:xlink="http://www.w3.org/1999/xlink"
   version="1.0"
   width="24"
   height="24"
   id="svg3386">
  <defs
     id="defs3388">
    <linearGradient
       id="linearGradient5048">
      <stop
         id="stop5050"
         style="stop-color:#000000;stop-opacity:0"
         offset="0" />
      <stop
         id="stop5056"
         style="stop-color:#000000;stop-opacity:1"
         offset="0.5" />
      <stop
         id="stop5052"
         style="stop-color:#000000;stop-opacity:0"
         offset="1" />
    </linearGradient>
    <linearGradient
       id="linearGradient5060">
      <stop
         id="stop5062"
         style="stop-color:#000000;stop-opacity:1"
         offset="0" />
      <stop
         id="stop5064"
         style="stop-color:#000000;stop-opacity:0"
         offset="1" />
    </linearGradient>
    <linearGradient
       id="linearGradient3104">
      <stop
         id="stop3106"
         style="stop-color:#aaaaaa;stop-opacity:1"
         offset="0" />
      <stop
         id="stop3108"
         style="stop-color:#c8c8c8;stop-opacity:1"
         offset="1" />
    </linearGradient>
    <linearGradient
       id="linearGradient3600">
      <stop
         id="stop3602"
         style="stop-color:#f4f4f4;stop-opacity:1"
         offset="0" />
      <stop
         id="stop3604"
         style="stop-color:#dbdbdb;stop-opacity:1"
         offset="1" />
    </linearGradient>
    <radialGradient
       cx="102"
       cy="112.3047"
       r="139.55859"
       id="XMLID_8_"
       gradientUnits="userSpaceOnUse">
      <stop
         id="stop41"
         style="stop-color:#b7b8b9;stop-opacity:1"
         offset="0" />
      <stop
         id="stop47"
         style="stop-color:#ececec;stop-opacity:1"
         offset="0.17402567" />
      <stop
         id="stop49"
         style="stop-color:#fafafa;stop-opacity:0"
         offset="0.23907544" />
      <stop
         id="stop51"
         style="stop-color:#ffffff;stop-opacity:0"
         offset="0.30111277" />
      <stop
         id="stop53"
         style="stop-color:#fafafa;stop-opacity:0"
         offset="0.53130001" />
      <stop
         id="stop55"
         style="stop-color:#ebecec;stop-opacity:0"
         offset="0.84490001" />
      <stop
         id="stop57"
         style="stop-color:#e1e2e3;stop-opacity:0"
         offset="1" />
    </radialGradient>
    <linearGradient
       id="linearGradient3211">
      <stop
         id="stop3213"
         style="stop-color:#ffffff;stop-opacity:1"
         offset="0" />
      <stop
         id="stop3215"
         style="stop-color:#ffffff;stop-opacity:0"
         offset="1" />
    </linearGradient>
    <linearGradient
       id="linearGradient8589">
      <stop
         id="stop8591"
         style="stop-color:#fefefe;stop-opacity:1"
         offset="0" />
      <stop
         id="stop8593"
         style="stop-color:#cbcbcb;stop-opacity:1"
         offset="1" />
    </linearGradient>
    <linearGradient
       x1="32.892288"
       y1="8.0590115"
       x2="36.358372"
       y2="5.4565363"
       id="linearGradient2425"
       xlink:href="#linearGradient8589"
       gradientUnits="userSpaceOnUse"
       gradientTransform="matrix(0.4778466,0,0,0.5524833,0.3722548,-0.0761283)" />
    <linearGradient
       x1="24"
       y1="1.9999999"
       x2="24"
       y2="46.01725"
       id="linearGradient2429"
       xlink:href="#linearGradient3211"
       gradientUnits="userSpaceOnUse"
       gradientTransform="matrix(0.4545444,0,0,0.4651153,1.0909345,0.3372293)" />
    <radialGradient
       cx="92.090363"
       cy="102.70267"
       r="139.55859"
       fx="92.090363"
       fy="102.70267"
       id="radialGradient2432"
       xlink:href="#XMLID_8_"
       gradientUnits="userSpaceOnUse"
       gradientTransform="matrix(0.1702128,0,0,-0.1907226,1.1063831,23.716504)" />
    <linearGradient
       x1="25.132275"
       y1="0.98520643"
       x2="25.132275"
       y2="47.013336"
       id="linearGradient2435"
       xlink:href="#linearGradient3600"
       gradientUnits="userSpaceOnUse"
       gradientTransform="matrix(0.4857154,0,0,0.4780255,0.3428305,-0.7059501)" />
    <linearGradient
       x1="-51.786404"
       y1="50.786446"
       x2="-51.786404"
       y2="2.9062471"
       id="linearGradient2438"
       xlink:href="#linearGradient3104"
       gradientUnits="userSpaceOnUse"
       gradientTransform="matrix(0.3922135,0,0,0.4473607,29.199293,-1.2386997)" />
    <radialGradient
       cx="605.71429"
       cy="486.64789"
       r="117.14286"
       fx="605.71429"
       fy="486.64789"
       id="radialGradient2441"
       xlink:href="#linearGradient5060"
       gradientUnits="userSpaceOnUse"
       gradientTransform="matrix(0.01204859,0,0,0.00823529,13.238794,18.980568)" />
    <radialGradient
       cx="605.71429"
       cy="486.64789"
       r="117.14286"
       fx="605.71429"
       fy="486.64789"
       id="radialGradient2444"
       xlink:href="#linearGradient5060"
       gradientUnits="userSpaceOnUse"
       gradientTransform="matrix(-0.01204859,0,0,0.00823529,10.761206,18.980568)" />
    <linearGradient
       x1="302.85715"
       y1="366.64789"
       x2="302.85715"
       y2="609.50507"
       id="linearGradient2447"
       xlink:href="#linearGradient5048"
       gradientUnits="userSpaceOnUse"
       gradientTransform="matrix(0.0352071,0,0,0.00823529,-0.724852,18.980551)" />
  </defs>
  <rect
     width="17"
     height="1.9999981"
     x="3.5000005"
     y="21.999998"
     id="rect2879"
     style="opacity:0.15;fill:url(#linearGradient2447);fill-opacity:1;fill-rule:nonzero;stroke:none;stroke-width:1;marker:none;visibility:visible;display:inline;overflow:visible" />
  <path
     d="m 3.5,22.000086 c 0,0 0,1.999889 0,1.999889 C 2.8795275,24.00374 2,23.551901 2,22.999901 2,22.447902 2.6924,22.000086 3.5,22.000086 z"
     id="path2881"
     style="opacity:0.15;fill:url(#radialGradient2444);fill-opacity:1;fill-rule:nonzero;stroke:none;stroke-width:1;marker:none;visibility:visible;display:inline;overflow:visible" />
  <path
     d="m 20.5,22.000086 c 0,0 0,1.999889 0,1.999889 0.620472,0.0038 1.5,-0.448074 1.5,-1.000074 0,-0.551999 -0.692401,-0.999815 -1.5,-0.999815 z"
     id="path2883"
     style="opacity:0.15;fill:url(#radialGradient2441);fill-opacity:1;fill-rule:nonzero;stroke:none;stroke-width:1;marker:none;visibility:visible;display:inline;overflow:visible" />
  <path
     d="m 3.4999617,0.49996097 c 3.8955799,0 7.6044553,0 11.5000383,0 C 15.683368,0.73725787 19.541325,3.628131 20.5,5.5 c 0,5.729157 3.9e-5,11.270881 3.9e-5,17.000039 -5.666693,0 -11.3333845,0 -17.0000773,0 0,-7.33336 0,-14.6667201 0,-22.00007803 z"
     id="path4160"
     style="fill:url(#linearGradient2435);fill-opacity:1;stroke:url(#linearGradient2438);stroke-width:0.99992162;stroke-linecap:butt;stroke-linejoin:round;stroke-miterlimit:4;stroke-opacity:1;stroke-dasharray:none;stroke-dashoffset:0;display:inline" />
  <path
     d="M 4.1702128,22 C 4.0764256,22 4,21.914366 4,21.809277 L 4,1.2112452 C 4,1.1059667 4.0764256,1.0205233 4.1702128,1.0205233 7.6916683,1.0732401 11.594065,0.94166522 15.11124,1.0336487 L 19.950127,5.3607855 20,21.809277 C 20,21.914366 19.923743,22 19.829786,22 L 4.1702128,22 z"
     id="path4191"
     style="fill:url(#radialGradient2432);fill-opacity:1" />
  <path
     d="m 19.500001,5.6770357 c 0,5.2083053 0,10.6146573 0,15.8229643 -5,0 -9.9999998,0 -15.000001,0 0,-6.66667 0,-13.3333343 0,-20.0000001 3.4372614,0 6.956499,0 10.393761,0"
     id="path2435"
     style="opacity:0.6;fill:none;stroke:url(#linearGradient2429);stroke-width:0.99999988;stroke-linecap:butt;stroke-linejoin:miter;stroke-miterlimit:4;stroke-opacity:1;stroke-dasharray:none;stroke-dashoffset:0;display:inline" />
  <path
     d="m 14.075474,1 c 1.156303,0.3287671 0.339059,4.6143789 0.339059,4.6143789 0,0 4.515388,-0.4277362 5.60771,1.1949961 C 21.511396,9.0216317 19.954018,6.1742029 19.848796,5.9876778 19.092868,4.6476323 15.982456,1.4405918 14.803387,1.0464703 14.715155,1.0169778 14.519511,1 14.075474,1 z"
     id="path3370"
     style="opacity:0.2;fill:#000000;fill-opacity:1;fill-rule:evenodd;stroke:none;display:inline" />
  <path
     d="m 14,1 c 1.526166,0 1,4 1,4 0,0 4.992074,-0.45326 4.992074,2 0,-0.5977419 0.05575,-1.4784338 -0.06407,-1.6559326 C 19.088897,4.1010616 16.184239,1.4821803 15.129935,1.0464703 15.043957,1.0109384 14.444037,1 14,1 z"
     id="path4474"
     style="fill:url(#linearGradient2425);fill-opacity:1;fill-rule:evenodd;stroke:none;display:inline" />
  <path
     d="m 9,12.851312 c 0.133856,0.363882 0.284521,0.658836 0.605452,0.255527 0.397883,-0.236731 1.731043,-1.274394 1.597644,-0.257979 -0.426877,1.880812 -0.946481,3.741845 -1.343777,5.628452 -0.415429,1.033002 0.52793,1.967395 1.512865,1.295629 1.046924,-0.431584 1.947798,-1.134561 2.868143,-1.779436 -0.125575,-0.307965 -0.209273,-0.750354 -0.556249,-0.347606 -0.455597,0.20679 -1.450673,1.181728 -1.635539,0.377622 0.382698,-2.03658 1.09175,-3.99777 1.544989,-6.018111 C 14.010625,11.076461 13.329423,9.902701 12.309742,10.671139 11.088138,11.203187 10.066557,12.07231 9,12.851312 z M 13.533765,6.0015954 C 12.287368,5.9354504 11.635709,7.9446769 12.820152,8.4944919 13.781082,8.888579 14.827362,7.903022 14.592611,6.9182242 14.519759,6.4054316 14.059369,5.9843459 13.533766,6.0015954 l -10e-7,0 z"
     id="text3482"
     style="font-size:40px;font-style:normal;font-variant:normal;font-weight:bold;font-stretch:normal;text-align:start;line-height:100%;writing-mode:lr-tb;text-anchor:start;opacity:0.6;fill:#000000;fill-opacity:1;stroke:none;font-family:URW Palladio L;-inkscape-font-specification:URW Palladio L Bold" />
  <path
     d="m 9,13.451312 c 0.133856,0.363882 0.284521,0.658836 0.605452,0.255527 0.397883,-0.236731 1.731043,-1.274393 1.597644,-0.257979 -0.426877,1.880812 -0.946481,3.741845 -1.343777,5.628452 -0.415429,1.033002 0.52793,1.967395 1.512865,1.295629 1.046924,-0.431584 1.947798,-1.134561 2.868143,-1.779436 -0.125575,-0.307965 -0.209273,-0.750354 -0.556249,-0.347606 -0.455597,0.20679 -1.450673,1.181728 -1.635539,0.377622 0.382698,-2.03658 1.09175,-3.99777 1.544989,-6.018111 0.417097,-0.928948 -0.264105,-2.102709 -1.283786,-1.334271 C 11.088138,11.803188 10.066557,12.67231 9,13.451312 z m 4.533765,-6.849719 c -1.246397,-0.066145 -1.898056,1.9430816 -0.713613,2.4928966 0.96093,0.394086 2.00721,-0.59147 1.772459,-1.5762678 C 14.519761,7.0054291 14.059369,6.5843435 13.533766,6.601593 l -10e-7,0 z"
     id="path3536"
     style="font-size:40px;font-style:normal;font-variant:normal;font-weight:bold;font-stretch:normal;text-align:start;line-height:100%;writing-mode:lr-tb;text-anchor:start;opacity:0.4;fill:#ffffff;fill-opacity:1;stroke:none;font-family:URW Palladio L;-inkscape-font-specification:URW Palladio L Bold" />
</svg>

<?xml version="1.0" encoding="UTF-8" standalone="no"?>
<!-- Created with Inkscape (http://www.inkscape.org/) -->
<svg id="svg3386" xmlns="http://www.w3.org/2000/svg" height="24" width="24" version="1.0" xmlns:xlink="http://www.w3.org/1999/xlink">
 <defs id="defs3388">
  <linearGradient id="linearGradient5060">
   <stop id="stop5062" offset="0"/>
   <stop id="stop5064" style="stop-opacity:0" offset="1"/>
  </linearGradient>
  <linearGradient id="linearGradient2425" y2="5.4565" gradientUnits="userSpaceOnUse" x2="36.358" gradientTransform="matrix(.47785 0 0 .55248 .37225 -.076128)" y1="8.059" x1="32.892">
   <stop id="stop8591" style="stop-color:#fefefe" offset="0"/>
   <stop id="stop8593" style="stop-color:#cbcbcb" offset="1"/>
  </linearGradient>
  <linearGradient id="linearGradient2429" y2="46.017" gradientUnits="userSpaceOnUse" x2="24" gradientTransform="matrix(.45454 0 0 .46512 1.0909 .33723)" y1="2" x1="24">
   <stop id="stop3213" style="stop-color:#fff" offset="0"/>
   <stop id="stop3215" style="stop-color:#fff;stop-opacity:0" offset="1"/>
  </linearGradient>
  <radialGradient id="radialGradient2432" gradientUnits="userSpaceOnUse" cy="102.7" cx="92.09" gradientTransform="matrix(.17021 0 0 -.19072 1.1064 23.717)" r="139.56">
   <stop id="stop41" style="stop-color:#b7b8b9" offset="0"/>
   <stop id="stop47" style="stop-color:#ececec" offset=".17403"/>
   <stop id="stop49" style="stop-color:#fafafa;stop-opacity:0" offset=".23908"/>
   <stop id="stop51" style="stop-color:#fff;stop-opacity:0" offset=".30111"/>
   <stop id="stop53" style="stop-color:#fafafa;stop-opacity:0" offset=".53130"/>
   <stop id="stop55" style="stop-color:#ebecec;stop-opacity:0" offset=".84490"/>
   <stop id="stop57" style="stop-color:#e1e2e3;stop-opacity:0" offset="1"/>
  </radialGradient>
  <linearGradient id="linearGradient2435" y2="47.013" gradientUnits="userSpaceOnUse" x2="25.132" gradientTransform="matrix(.48572 0 0 .47803 .34283 -.70595)" y1=".98521" x1="25.132">
   <stop id="stop3602" style="stop-color:#f4f4f4" offset="0"/>
   <stop id="stop3604" style="stop-color:#dbdbdb" offset="1"/>
  </linearGradient>
  <linearGradient id="linearGradient2438" y2="2.9062" gradientUnits="userSpaceOnUse" x2="-51.786" gradientTransform="matrix(.39221 0 0 .44736 29.199 -1.2387)" y1="50.786" x1="-51.786">
   <stop id="stop3106" style="stop-color:#aaa" offset="0"/>
   <stop id="stop3108" style="stop-color:#c8c8c8" offset="1"/>
  </linearGradient>
  <radialGradient id="radialGradient2441" xlink:href="#linearGradient5060" gradientUnits="userSpaceOnUse" cy="486.65" cx="605.71" gradientTransform="matrix(.012049 0 0 .0082353 13.239 18.981)" r="117.14"/>
  <radialGradient id="radialGradient2444" xlink:href="#linearGradient5060" gradientUnits="userSpaceOnUse" cy="486.65" cx="605.71" gradientTransform="matrix(-.012049 0 0 .0082353 10.761 18.981)" r="117.14"/>
  <linearGradient id="linearGradient2447" y2="609.51" gradientUnits="userSpaceOnUse" x2="302.86" gradientTransform="matrix(.035207 0 0 .0082353 -.72485 18.981)" y1="366.65" x1="302.86">
   <stop id="stop5050" style="stop-opacity:0" offset="0"/>
   <stop id="stop5056" offset=".5"/>
   <stop id="stop5052" style="stop-opacity:0" offset="1"/>
  </linearGradient>
 </defs>
 <rect id="rect2879" style="opacity:.15;fill:url(#linearGradient2447)" height="2" width="17" y="22" x="3.5"/>
 <path id="path2881" style="opacity:.15;fill:url(#radialGradient2444)" d="m3.5 22v1.9999c-0.6205 0.004-1.5-0.448-1.5-1s0.6924-1 1.5-1z"/>
 <path id="path2883" style="opacity:.15;fill:url(#radialGradient2441)" d="m20.5 22v1.9999c0.62047 0.0038 1.5-0.44807 1.5-1.0001 0-0.552-0.6924-0.99982-1.5-0.99982z"/>
 <path id="path4160" style="stroke-linejoin:round;stroke:url(#linearGradient2438);stroke-width:.99992;fill:url(#linearGradient2435)" d="m3.5 0.49996h11.5c0.683 0.2373 4.541 3.1281 5.5 5 0 5.7292 0.000039 11.271 0.000039 17h-17v-22z"/>
 <path id="path4191" style="fill:url(#radialGradient2432)" d="m4.1702 22c-0.0938 0-0.1702-0.086-0.1702-0.191v-20.598c0-0.105 0.0764-0.1905 0.1702-0.1905 3.5215 0.0527 7.4238-0.07883 10.941 0.0131l4.839 4.3272 0.05 16.448c0 0.105-0.076 0.191-0.17 0.191h-15.66z"/>
 <path id="path2435" style="opacity:.6;stroke:url(#linearGradient2429);fill:none" d="m19.5 5.677v15.823h-15v-20h10.394"/>
 <path id="path3370" style="opacity:.2;fill-rule:evenodd" d="m14.075 1c1.1563 0.32877 0.33906 4.6144 0.33906 4.6144s4.5154-0.42774 5.6077 1.195c1.489 2.2122-0.068-0.6352-0.173-0.8217-0.756-1.3401-3.867-4.5471-5.046-4.9412-0.088-0.0295-0.283-0.0465-0.728-0.0465z"/>
 <path id="path4474" style="fill:url(#linearGradient2425);fill-rule:evenodd" d="m14 1c1.5262 0 1 4 1 4s4.9921-0.45326 4.9921 2c0-0.59774 0.05575-1.4784-0.06407-1.6559-0.839-1.243-3.744-3.8619-4.798-4.2976-0.086-0.0356-0.686-0.0465-1.13-0.0465z"/>
 <path id="text3482" style="opacity:.6" d="m9 12.851c0.13386 0.36388 0.28452 0.65884 0.60545 0.25553 0.39788-0.23673 1.731-1.2744 1.5976-0.25798-0.42688 1.8808-0.94648 3.7418-1.3438 5.6285-0.41543 1.033 0.52793 1.9674 1.5129 1.2956 1.0469-0.43158 1.9478-1.1346 2.8681-1.7794-0.12558-0.30796-0.20927-0.75035-0.55625-0.34761-0.4556 0.20679-1.4507 1.1817-1.6355 0.37762 0.3827-2.0366 1.0918-3.9978 1.545-6.0181 0.417-0.929-0.265-2.1023-1.284-1.334-1.222 0.532-2.243 1.401-3.31 2.18zm4.534-6.8494c-1.247-0.0661-1.898 1.9431-0.714 2.4929 0.961 0.3941 2.007-0.5915 1.773-1.5763-0.073-0.5128-0.534-0.9339-1.059-0.9166h-0.000001z"/>
 <path id="path3536" style="opacity:.4;fill:#fff" d="m9 13.451c0.13386 0.36388 0.28452 0.65884 0.60545 0.25553 0.39788-0.23673 1.731-1.2744 1.5976-0.25798-0.42688 1.8808-0.94648 3.7418-1.3438 5.6285-0.41543 1.033 0.52793 1.9674 1.5129 1.2956 1.0469-0.43158 1.9478-1.1346 2.8681-1.7794-0.12558-0.30796-0.20927-0.75035-0.55625-0.34761-0.4556 0.20679-1.4507 1.1817-1.6355 0.37762 0.3827-2.0366 1.0918-3.9978 1.545-6.0181 0.4171-0.92895-0.2641-2.1027-1.2838-1.3343-1.222 0.532-2.243 1.401-3.31 2.18zm4.5338-6.8497c-1.2464-0.066145-1.8981 1.9431-0.71361 2.4929 0.96093 0.39409 2.0072-0.59147 1.7725-1.5763-0.073-0.5125-0.534-0.9336-1.059-0.9163h-0.000001z"/>
</svg>
